X: 14060
T: Fred Pigeon's
R: polka
M: 2/4
K: Gmajor
|:D|G/F/G/A/ B/A/B/c/|dB BA/B/|cA A/B/c/A/|FD DD|
G/F/G/A/ B/A/B/c/|dB BA/B/|cA FD|G2 G:|
|:z|BG/G/ GG|G2 G/F/G/A/|BG/G/ GG|A2 AG/A/|
BG/G/ GF|Ec c2|dc/B/ AB|G2 G:|

